X:65
T: One of Johnny O'Leary's
S: "Treoir"
Z: B.Black
M: 12/8
L: 1/8
R: slide
K: D
B | A2 F DFA BEE BEE | d2 B AFA Bcd edB |
AFE DFA BEE BEE | fg/a/f ede fdc d2 :|
f | afe dfa bee ede | fef dfa gfg efg |
a2 f dfd bee ede | f3 ede fdc d2 :|

